Hatter-kde/actions/24/paint-none.svg

<svg version="1.1" viewBox="0 0 24 24" xmlns="http://www.w3.org/2000/svg">
    <style
        type="text/css"
        id="current-color-scheme">
        .ColorScheme-NegativeText {
            color:#da4453;
        }
    </style><g transform="translate(1,1)">
    <path class="ColorScheme-NegativeText" d="M 3.6992188 3 L 3 3.6992188 L 10.300781 11 L 3 18.300781 C 3 18.300781 3.7112147 18.993333 3.6992188 19 L 11 11.699219 L 18.300781 19 C 18.288781 18.9933 19 18.300781 19 18.300781 L 11.699219 11.001953 L 19 3.6992188 L 18.300781 3 L 11 10.300781 L 3.6992188 3 z " fill="currentColor"/>
</g></svg>

<?xml version="1.0" encoding="UTF-8"?>
<svg version="1.1" viewBox="0 0 24 24" xmlns="http://www.w3.org/2000/svg">
 <style id="current-color-scheme" type="text/css">.ColorScheme-NegativeText {
            color:#da4453;
        }</style>
 <g transform="translate(1,1)">
  <path class="ColorScheme-NegativeText" d="m3.6992 3-0.69922 0.69922 7.3008 7.3008-7.3008 7.3008s0.71121 0.69255 0.69922 0.69922l7.3008-7.3008 7.3008 7.3008c-0.012-0.0067 0.69922-0.69922 0.69922-0.69922l-7.3008-7.2988 7.3008-7.3027-0.69922-0.69922-7.3008 7.3008-7.3008-7.3008z" fill="currentColor"/>
 </g>
</svg>
